X:10457
T:Master McDermott
T:McDermott's Reel
T:Barrel Rafferty
T:Josie McDermott's
C:Sean Maguire & Liam Donnelly (Michael 'Master' McDermott)
R:reel
D:Kevin Griffin: Down in Doolin
Z:id:hn-reel-563
M:C|
K:D
DF~F2 DEFA|d2fe dB~B2|AF~F2 dFAF|BFAF E2FE|
DF~F2 DEFA|defe dB~B2|AF~F2 dBAF|1 EDEF D2FE:|2 EDEF D2fe||
|:df~f2 dfaf|g2fg agfe|dBBA Bcde|fdgf e2de|
faaf g2fg|agfe dB~B2|AF~F2 dBAF|1 EDEF D2fe:|2 EDEF D2FE||
